X: 32327
T: Pigtown Fling, The
R: reel
M: 4/4
K: Gmajor
G2ge d2ed|B2ge dBAB|G2ge d2ed|BGAG EGGD|
G2ge d2ed|DBBG dBAB|G2ge d2ed|BGAG EGG2||
Beed e3g|fgaf gfed|Beed e3g|fgaf g4|
Beed edgd|fgaf gfed|DBBd e3g|fgaf g4||

